X:1
T: Vivian Medley No. 2
N:From a manuscript fragment titled "Fancy Dances Book Second! Bronson's
N:Orchestra, K.D. Bronson." K.D. Bronson was a violinist and cornetist who led a
N:dance band in San Jose, California in the 1870's.
Z:V.T. Williams
M:3/4
K:C
G2|^F4A2|G4c2|B4d2|c4z2|B4A2|F4z2|A4G2|E4z2|
G4G2|^F4A2|G4e2|c4c2|B4D2|B4A2|G6-|G2z4|
d4-G2|d4-G2|e2c4-|c2c2c2|d4c2|A4d2|G6-|G4G2|
G6|A4G2|e6|d4A2|c4B2|e4d2|d2c4-|c4z2:|

